X: 61
T: Al Yeşil Dökün Anneler
C: Bedirhan Kırmızı
O: Turkey
F: http://compmusic.upf.edu/node/140
N: huzzam--turku--curcuna--al_yesil--urfa
N: makam= huzzam
N: form= turku
N: usul= curcuna = 10/8
M: 10/8
L: 1/16
K: C _1/4B _3/4e ^3/4f 
Q: 1/4=168
%%MIDI tuningsystem comma53
g2d2 f2g4g4g2 a2f2  | f4 f2g2 e2e4e2 f2d2  | \
w:  ARANAĞME  |   | 
d4 d2d4d2 e2d2 c2B2  | 
w:   | 
B6B4B3/2A/ Bcde fgfa  | g2d2 f2g4g4g2 a2f2  | \
w:   |  ARANAĞME  | 
f4 f2g2 e2e4e2 f2d2  | 
w:   | 
d4 d2d4d2 e2d2 c2B2  | B8-B2G4B3/2A/ BcBc  | \
w:   |   | 
d4 B2c4d4d6  | 
w:  *  Al  ye şil  dö  | 
d4 d2{d}f4{g}(3f2e2d2c4c2  | d4 d6d2 e2d2 c2B2  | \
w:  kün_ *  *  an *  ne *  *  ler   |  me zar  ta *  şı  | 
{c}B4 B6.B.c .d.B.c.A .B.G.B.c  | 
w:  *  ma   *  SAZ  | 
d4 B2c4d4d6  | d4 d2{d}f4{g}(3f2e2d2c4c2  | \
w:  *  Al  ye şil  dö  |  kün_ *  *  an *  ne *  *  ler   | 
d4 d6d2 e2d2 c2B2  | {c}B4 B6G4Bc d2ef  | 
w:  me zar  ta *  şı  |  *  ma   *  SAZ  | 
g2d2 f2g4g4g2 a2f2  | f4 f2g2 e2e4e2 f2d2  | \
w:  *  *  Ge len_ ağ lar   |  gi den_ *  *  ağ lar   | 
d4 d2d4d2 e2d2 c2B2  | 
w:  ah  bu  genç  ya *  şı  | 
B6B4B3/2A/ Bcde fga{_b}g  | {a}g2d2 f2g4g4g2 a2f2  | \
w:  ma   *  SAZ  |  *  *  *  Ge len_ ağ lar   | 
f4 f2g2 e2e4e2 f2d2  | 
w:  gi den_ *  *  ağ lar   | 
d4 d2d4d2 e2d2 c2B2  | B6B4B3/2A/ Bcde fga{_b}g  | \
w:  ah  bu  genç  ya *  şı  |  ma   *  SAZ  | 
{a}f4 f2f4f4f6  | 
w:  *  *  Bu  ne  fe lâ  | 
g4 g2a2 g2(3g2g2f2g6  | {f}g4 f2_1/4ed e2(3f2f2=e2{g}f4_3/4ef  | \
w:  ket *  ti  *  gel *  *  di   |  *  ba *  şı *  *  ma   *  *  *  SAZ  | 
{g}f4 f2f4f4f6  | 
w:  *  *  Bu  ne  fe lâ  | 
g4 g2a2 g2(3g2g2f2g6  | {f}g4 f2_1/4ed e2(3f2f2=e2{g}f4_3/4ef  | \
w:  ket *  ti  *  gel *  *  di   |  *  ba *  şı *  *  ma   *  *  *  SAZ  | 
g2d2 f2g4g4g2 a2f2  | 
w:  *  *  Rah met mi yor   | 
f4 f2g2 e2e4e2 f2d2  | d2_1/4e2 =f2f2 e2d4c4B2  | \
w:  za lim  *  *  fe lek   |  kan *  *  lı  *  ya şı  | 
B4 B6G4Bc d2ef  | 
w:  ma   *  SAZ  | 
g2d2 f2g4g4g2 a2f2  | f4 f2g2 e2e4e2 f2d2  | \
w:  *  *  Rah met mi yor   |  za lim  *  *  fe lek   | 
d2_1/4e2 =f2f2 e2d4c4B2  | 
w:  kan *  *  lı  *  ya şı  | 
B4 B6G4Bc d2ef  | g2d2 f2g4g4g2 a2f2  | \
w:  ma   *  SAZ  |  ARANAĞME  | 
f4 f2g2 e2e4e2 f2d2  | 
w:   | 
d4 d2d4d2 e2d2 c2B2  | B6B4B3/2A/ Bcde fgfa  | \
w:   |   | 
g2d2 f2g4g4g2 a2f2  | 
w:  ARANAĞME  | 
f4 f2g2 e2e4e2 f2d2  | d4 d2d4d2 e2d2 c2B2  | \
w:   |   | 
B8-B2G4B3/2A/ BcBc  | 
w:   | 
d4 B2c4d4d6  | d4 d2{d}f4{g}(3f2e2d2c4c2  | \
w:  *  Kul_ oğ lu  ya   |  mah *  *  şe *  re  *  dek   | 
d4 d6d2 e2d2 {e}c2B2  | {c}B4 B6G4Bc d2ef  | 
w:  bin  rah met_ *  ol  |  *  ma   *  SAZ  | 
d4 B2c4d4d6  | d4 d2{d}f4{g}(3f2e2d2c4c2  | \
w:  *  Kul_ oğ lu  ya   |  mah *  *  şe *  re  *  dek   | 
d4 d6d2 e2d2 {e}c2B2  | {c}B4 B6G4Bc d2ef  | 
w:  bin  rah met_ *  ol  |  *  ma   *  SAZ  | 
g2d2 f2g4g4g2 a2f2  | f4 f2g2 e2e4e2 f2d2  | \
w:  *  *  Yü re ğim den   |  vur du lar  *  be ni   | 
d4 d2d4d2 e2d2 c2B2  | 
w:  ta bip  *  ne  *  yap  | 
B6B4B3/2A/ Bcde fga{_b}g  | {a}g2d2 f2g4g4g2 a2f2  | \
w:  sın   *  SAZ  |  *  *  *  Yü re ğim den   | 
f4 f2g2 e2e4e2 f2d2  | 
w:  vur du lar  *  be ni   | 
d4 d2d4d2 e2d2 c2B2  | B6B4B3/2A/ Bcde fga{_b}g  | \
w:  ta bip  *  ne  *  yap  |  sın   *  SAZ  | 
{a}f4 f2f4f4f6  | 
w:  *  *  Po tin_ a ya  | 
g4 g2a2 g2(3g2g2f2g6  | {f}g4 g6{a}g4f2 ede2  | \
w:  ğım *  da  *  i *  *  gal   |  *  ba şım *  da  kal  | 
(3f2f2e2 {g}f6g2 fefg fdef  | 
w:  sın   *  *  *  *  SAZ  | 
g2d2 f2g4g4g2 a2f2  | f4 f2g2 e2e4e2 f2d2  | \
w:  *  *  Ci ğe rim den   |  vur du lar  *  be ni   | 
d4 d2d4d2 e2d2 c2B2  | 
w:  dok tor  *  ne  *  yap  | 
B8-B2GA Bcd3/2c/ defa  | g2d2 f2g4g4g2 a2f2  | \
w:  sın    |  *  *  Ci ğe rim den   | 
f4 f2g2 e2e4e2 f2d2  | 
w:  vur du lar  *  be ni   | 
d4 d2d4d2 e2d2 c2B2  | B8-B2G4B6  | |


